usr/share/icons/biglinux-icons-material/scalable/apps/distributor-logo-rhel.svg

<svg width="64" height="64" viewBox="0 0 16.933 16.933" xmlns="http://www.w3.org/2000/svg"><path d="M8.467 1.323a7.144 7.144 0 1 1 0 14.288 7.144 7.144 0 0 1 0-14.288z" fill="#f2f2f2" stroke-width=".927"/><g stroke-width=".833"><path d="M8.467 3.699a4.76 4.76 0 0 0-4.763 4.763c0 .518.089 1.033.257 1.524.51-.007.888-.077 1.153-.206.458-.224.548.5.97.466.476-.04.017-.352-.16-.561-.23-.27-.314-.753.192-.798.384-.033.613.654.743.562.338-.238.51.269.76.46.33.253.77.314 1.124.16.359-.156.522.15.948-.03.315-.132.326.196.925-.046-.017.283-.118.557-.172.822-.065.317-.58 1.006-.84 1.314.294-.071.531-.174.57-.247.302-.563.812-.328.814-.659 0-.221.56-.221.654-.221.171 0 .524.002.815.051A4.756 4.756 0 0 0 8.467 3.7zm1.03 6.91c-.061.129-.23.243-.338.133-.12-.123-.468-.136-.45.061.014.15.075.001.247.125.258.186.743.067.54-.317zm3.574.075a.159.159 0 1 0 0 .318.159.159 0 0 0 0-.318zm0 .032a.127.127 0 1 1 0 .254.127.127 0 0 1 0-.254zm-.063.047v.16h.029v-.063h.026l.038.062h.033l-.04-.066c.024-.009.036-.023.036-.046 0-.031-.023-.047-.068-.047zm.029.026h.021c.022 0 .042.003.042.023 0 .021-.023.022-.049.022h-.014v-.045z" fill="#2c2c2c"/><path d="M11.083 7.191c-.017.204-.294.565-.427.44.276-.36.16-.838.012-1.229-.204-.538-.36-1.146-.796-1.534-.402-.359-.989-.173-1.469-.054-.512.128-1.096-.302-1.567.025-.39.271-.331.818-.463 1.237-.137.43.341.715.695.837.45.155.986.105 1.364.41.208.17.352.51.352.828-.952 0-1.924-.386-2.526-.973-.202-.203.054-.615-.396-.615-.38 0-.757-.02-1.037.213-.286.238-.173.695.083.943.834.812 1.888 1.338 2.97 1.694 1.124.37 2.4.493 3.509.003.507-.225.994-.762.871-1.355-.11-.535-.7-.76-1.175-.87zM8.616 5.057c.303-.203.841-.304 1.075-.025.276.33-.469.5-.7.333.13-.032.407-.287.09-.317-.163-.02-.328 0-.465.01zm-.575.895c-.383-.043-.718.401-1.076.046-.205-.203-.177-.68.158-.413.333.265.912-.198 1.16.196.092.144-.122.185-.242.171z" fill="#f03030"/></g></svg>

<?xml version="1.0" encoding="UTF-8" standalone="no"?>
<svg
   width="24"
   height="24"
   viewBox="0 0 24 24"
   fill="none"
   version="1.1"
   id="svg154"
   sodipodi:docname="distributor-logo-rhel.svg"
   inkscape:version="1.2.2 (b0a8486541, 2022-12-01)"
   xml:space="preserve"
   xmlns:inkscape="http://www.inkscape.org/namespaces/inkscape"
   xmlns:sodipodi="http://sodipodi.sourceforge.net/DTD/sodipodi-0.dtd"
   xmlns:xlink="http://www.w3.org/1999/xlink"
   xmlns="http://www.w3.org/2000/svg"
   xmlns:svg="http://www.w3.org/2000/svg"
   xmlns:sketch="http://www.bohemiancoding.com/sketch/ns"><sodipodi:namedview
     id="namedview156"
     pagecolor="#ffffff"
     bordercolor="#000000"
     borderopacity="1"
     inkscape:showpageshadow="0"
     inkscape:pageopacity="1"
     inkscape:pagecheckerboard="false"
     inkscape:deskcolor="#ffffff"
     showgrid="true"
     inkscape:zoom="22.627417"
     inkscape:cx="11.75565"
     inkscape:cy="11.733553"
     inkscape:window-width="1920"
     inkscape:window-height="1052"
     inkscape:window-x="0"
     inkscape:window-y="0"
     inkscape:window-maximized="1"
     inkscape:current-layer="svg154"
     showguides="true"
     guidecolor="#ff0000"
     guideopacity="1"
     inkscape:lockguides="true"
     showborder="true"
     borderlayer="true"><inkscape:grid
       type="xygrid"
       id="grid356"
       color="#000000"
       opacity="0.10196078"
       empcolor="#000000"
       empopacity="0.10196078"
       snapvisiblegridlinesonly="true"
       enabled="true"
       visible="true"
       dotted="false" /><sodipodi:guide
       position="4.003125,23.042969"
       orientation="1,0"
       id="guide764"
       inkscape:locked="true" /><sodipodi:guide
       position="5.0007813,21.049219"
       orientation="1,0"
       id="guide2218"
       inkscape:locked="true" /><sodipodi:guide
       position="3.6445312,20"
       orientation="0,-1"
       id="guide2220"
       inkscape:locked="true" /><sodipodi:guide
       position="3.796875,5"
       orientation="0,-1"
       id="guide2222"
       inkscape:locked="true" /><sodipodi:guide
       position="3.625,4"
       orientation="0,-1"
       id="guide2224"
       inkscape:locked="true" /><sodipodi:guide
       position="19,4.8984375"
       orientation="1,0"
       id="guide2226"
       inkscape:locked="true" /><sodipodi:guide
       position="20,3.3312502"
       orientation="1,0"
       id="guide2228"
       inkscape:locked="true" /><sodipodi:guide
       position="22.875,19"
       orientation="0,-1"
       id="guide2230"
       inkscape:locked="true" /></sodipodi:namedview><defs
     id="defs152"><radialGradient
       id="radialGradient1281"
       cx="0"
       cy="0"
       r="1"
       gradientUnits="userSpaceOnUse"
       gradientTransform="translate(12 1) rotate(90) scale(22)"><stop
         stop-color="#8FC8FF"
         id="stop1277"
         offset="0.00424011"
         style="stop-color:#ffffff;stop-opacity:1;" /><stop
         offset="0.99151897"
         stop-color="#0056A8"
         id="stop1279"
         style="stop-color:#ffffff;stop-opacity:1;" /></radialGradient><radialGradient
       id="paint0_radial_29_23"
       cx="0"
       cy="0"
       r="1"
       gradientUnits="userSpaceOnUse"
       gradientTransform="translate(12 1) rotate(90) scale(22)"><stop
         stop-color="#8FC8FF"
         id="stop147"
         offset="0"
         style="stop-color:#f6f6f6;stop-opacity:1;" /><stop
         offset="1"
         stop-color="#0056A8"
         id="stop149"
         style="stop-color:#cfcfcf;stop-opacity:1;" /></radialGradient><radialGradient
       id="paint0_radial_10_2"
       cx="0"
       cy="0"
       r="1"
       gradientUnits="userSpaceOnUse"
       gradientTransform="matrix(-10.999959,21.999967,-21.999967,-10.999959,17.5,1)"
       xlink:href="#paint0_radial_29_23"><stop
         stop-color="#777777"
         id="stop2847" /><stop
         offset="1"
         stop-color="#222222"
         id="stop2849" /></radialGradient><linearGradient
       x1="12"
       y1="1"
       x2="12"
       y2="23"
       gradientUnits="userSpaceOnUse"
       gradientTransform="matrix(0.75,0,0,0.75,-7.98374e-6,2.65834e-5)"
       spreadMethod="pad"
       id="linearGradient44915"><stop
         style="stop-opacity:1;stop-color:#ff5f5f"
         offset="0"
         id="stop44911" /><stop
         style="stop-opacity:1;stop-color:#e82e34"
         offset="1"
         id="stop44913" /></linearGradient><radialGradient
       id="SVGID_1_"
       cx="85.226997"
       cy="71.662003"
       r="47.776001"
       gradientTransform="matrix(1,0,0,-1,0,103.8)"
       gradientUnits="userSpaceOnUse"><stop
         offset="0"
         stop-color="#00aeff"
         id="stop12" /><stop
         offset=".131"
         stop-color="#00a5f7"
         id="stop14" /><stop
         offset=".345"
         stop-color="#008de0"
         id="stop16" /><stop
         offset=".616"
         stop-color="#0065ba"
         id="stop18" /><stop
         offset=".928"
         stop-color="#002f87"
         id="stop20" /><stop
         offset="1"
         stop-color="#00217a"
         id="stop22" /></radialGradient><linearGradient
       id="SVGID_3_"
       gradientUnits="userSpaceOnUse"
       x1="92.800003"
       y1="72.949997"
       x2="130.763"
       y2="72.949997"
       gradientTransform="matrix(1,0,0,-1,0,103.8)"><stop
         offset="0"
         stop-color="#FFF"
         id="stop29" /><stop
         offset="1"
         stop-color="#FFF"
         stop-opacity="0"
         id="stop31" /></linearGradient><radialGradient
       id="SVGID_4_"
       cx="83.728996"
       cy="73.999001"
       r="8.2860003"
       gradientTransform="matrix(1,0,0,-1,0,103.8)"
       gradientUnits="userSpaceOnUse"><stop
         offset="0"
         stop-color="#FFF"
         id="stop36" /><stop
         offset=".679"
         stop-color="#7a7a7a"
         id="stop38" /><stop
         offset="1"
         stop-color="#404040"
         id="stop40" /></radialGradient><radialGradient
       fx="0"
       fy="0"
       cx="0"
       cy="0"
       r="1"
       gradientUnits="userSpaceOnUse"
       gradientTransform="matrix(0,16.5,-16.5,0,8.999996,0.750012)"
       spreadMethod="pad"
       id="radialGradient3666-6"><stop
         style="stop-color:#ffffff;stop-opacity:1;"
         offset="0"
         id="stop3662-7" /><stop
         style="stop-color:#f7da4d;stop-opacity:1;"
         offset="1"
         id="stop3664-5" /></radialGradient><clipPath
       id="a"><path
         d="M 0,0.113 H 91.887 V 92 H 0 Z m 0,0"
         id="path76179" /></clipPath><clipPath
       id="a-3"><path
         d="M 0,0.113 H 91.887 V 92 H 0 Z m 0,0"
         id="path76179-5" /></clipPath><radialGradient
       fx="0"
       fy="0"
       cx="0"
       cy="0"
       r="1"
       gradientUnits="userSpaceOnUse"
       gradientTransform="matrix(0,16.5,-16.5,0,8.999996,0.750012)"
       spreadMethod="pad"
       id="radialGradient3666-6-2"><stop
         style="stop-color:#ffffff;stop-opacity:1;"
         offset="0"
         id="stop3662-7-9" /><stop
         style="stop-color:#3dc89a;stop-opacity:1;"
         offset="1"
         id="stop3664-5-1" /></radialGradient><linearGradient
       id="paint0_linear_3_169"
       x1="12"
       y1="1"
       x2="12"
       y2="12"
       gradientUnits="userSpaceOnUse"><stop
         stop-color="#AAA2FF"
         id="stop132364" /><stop
         offset="1"
         stop-color="#7164EE"
         id="stop132366" /></linearGradient><linearGradient
       id="paint0_linear_3_169-2"
       x1="12"
       y1="1"
       x2="12"
       y2="12"
       gradientUnits="userSpaceOnUse"><stop
         stop-color="#AAA2FF"
         id="stop133305" /><stop
         offset="1"
         stop-color="#7164EE"
         id="stop133307" /></linearGradient><linearGradient
       id="a-7"
       x1="1"
       x2="47"
       gradientTransform="matrix(0,-1.1304,1.1304,0,-0.13,48.13)"
       gradientUnits="userSpaceOnUse"><stop
         stop-color="#31af54"
         offset="0"
         id="stop187140" /><stop
         stop-color="#35bf5c"
         offset="1"
         id="stop187142" /></linearGradient></defs><path
     d="M 50,5 C 9.0909092,5 5,25.454546 5,50 5,82.727274 17.272728,95 50,95 82.727274,95 95,82.727274 95,50 95,25.454546 90.909093,5 50,5 Z"
     sketch:type="MSShapeGroup"
     id="path6"
     style="font-variation-settings:normal;display:inline;opacity:1;vector-effect:none;fill:#f2f2f2;fill-opacity:1;stroke-width:4.56656;stroke-linecap:butt;stroke-linejoin:miter;stroke-miterlimit:4;stroke-dasharray:none;stroke-dashoffset:0;stroke-opacity:1;-inkscape-stroke:none;stop-color:#000000;stop-opacity:1"
     sodipodi:nodetypes="sssss"
     inkscape:label="Shape"
     transform="matrix(0.24444444,0,0,0.24444444,-0.22222222,-0.22222222)"
     sodipodi:insensitive="true" /><g
     inkscape:groupmode="layer"
     id="layer4"
     inkscape:label="Colors References"
     style="display:none"
     sodipodi:insensitive="true"
     inkscape:highlight-color="#cc5ecc"><rect
       style="display:inline;fill:#3947be;fill-opacity:1;stroke-width:22.6872;paint-order:markers stroke fill"
       id="rect7816"
       width="1.9999923"
       height="2"
       x="12"
       y="-2.9999964"
       rx="0"
       ry="0"
       inkscape:label="Dark Blue" /><rect
       style="display:inline;fill:#6c7ad8;fill-opacity:1;stroke-width:22.6873;paint-order:markers stroke fill"
       id="rect7820"
       width="2"
       height="2.0000076"
       x="9"
       y="-3.0000041"
       rx="0"
       ry="0"
       inkscape:label="Blue" /><rect
       style="display:inline;fill:#33cc33;fill-opacity:1;stroke-width:22.6873;paint-order:markers stroke fill"
       id="rect7814"
       width="2"
       height="2.0000076"
       x="6"
       y="-3.0000041"
       rx="0"
       ry="0"
       inkscape:label="Green" /><rect
       style="display:inline;fill:#ffc328;fill-opacity:1;stroke-width:22.6872;paint-order:markers stroke fill"
       id="rect7824"
       width="1.9999926"
       height="2.0000002"
       x="3"
       y="-2.9999964"
       rx="0"
       ry="0"
       inkscape:label="Yellow" /><rect
       style="display:inline;fill:#cc5e55;fill-opacity:1;stroke-width:22.6873;paint-order:markers stroke fill"
       id="rect7822"
       width="2"
       height="2.0000076"
       x="0"
       y="-3.0000038"
       rx="0"
       ry="0"
       inkscape:label="Red" /><rect
       style="display:inline;fill:#0bb1cb;fill-opacity:1;stroke-width:22.6872;paint-order:markers stroke fill"
       id="rect3087"
       width="1.9999919"
       height="1.9999996"
       x="-3"
       y="12.000004"
       rx="0"
       ry="0"
       inkscape:label="Blue 4" /><rect
       style="display:inline;fill:#2a92c9;fill-opacity:1;stroke-width:22.6873;paint-order:markers stroke fill"
       id="rect3085"
       width="2"
       height="2.0000079"
       x="-3"
       y="8.9999962"
       rx="0"
       ry="0"
       inkscape:label="Blue 3" /><rect
       style="display:inline;fill:#006699;fill-opacity:1;stroke-width:22.6873;paint-order:markers stroke fill"
       id="rect3089"
       width="2"
       height="2.0000076"
       x="-3"
       y="6.0000038"
       rx="0"
       ry="0"
       inkscape:label="Blue 2" /><rect
       style="display:inline;fill:#002a44;fill-opacity:1;stroke-width:22.6873;paint-order:markers stroke fill"
       id="rect3083"
       width="2"
       height="2.0000076"
       x="-3"
       y="2.9999962"
       rx="0"
       ry="0"
       inkscape:label="Blue 1" /><rect
       style="display:inline;fill:#2c2d3d;fill-opacity:1;stroke-width:22.6873;paint-order:markers stroke fill"
       id="rect3456"
       width="2"
       height="2.0000076"
       x="-3"
       y="-3.8146973e-06"
       rx="0"
       ry="0"
       inkscape:label="Gray" /><rect
       style="display:inline;fill:#16171c;fill-opacity:1;stroke-width:22.6872;paint-order:markers stroke fill"
       id="rect3091"
       width="1.9999924"
       height="2"
       x="-3"
       y="-3"
       rx="0"
       ry="0"
       inkscape:label="Black" /></g><g
     id="g203846"
     transform="matrix(1.6792855,0,0,1.6792855,-2.2185095,-1.2898647)"><g
       stroke-width="0.833"
       id="g203717"><path
         d="M 8.467,3.699 A 4.76,4.76 0 0 0 3.704,8.462 c 0,0.518 0.089,1.033 0.257,1.524 C 4.471,9.979 4.849,9.909 5.114,9.78 5.572,9.556 5.662,10.28 6.084,10.246 6.56,10.206 6.101,9.894 5.924,9.685 5.694,9.415 5.61,8.932 6.116,8.887 6.5,8.854 6.729,9.541 6.859,9.449 c 0.338,-0.238 0.51,0.269 0.76,0.46 0.33,0.253 0.77,0.314 1.124,0.16 0.359,-0.156 0.522,0.15 0.948,-0.03 0.315,-0.132 0.326,0.196 0.925,-0.046 -0.017,0.283 -0.118,0.557 -0.172,0.822 -0.065,0.317 -0.58,1.006 -0.84,1.314 0.294,-0.071 0.531,-0.174 0.57,-0.247 0.302,-0.563 0.812,-0.328 0.814,-0.659 0,-0.221 0.56,-0.221 0.654,-0.221 0.171,0 0.524,0.002 0.815,0.051 A 4.756,4.756 0 0 0 8.467,3.7 Z m 1.03,6.91 c -0.061,0.129 -0.23,0.243 -0.338,0.133 -0.12,-0.123 -0.468,-0.136 -0.45,0.061 0.014,0.15 0.075,10e-4 0.247,0.125 0.258,0.186 0.743,0.067 0.54,-0.317 z m 3.574,0.075 a 0.159,0.159 0 1 0 0,0.318 0.159,0.159 0 0 0 0,-0.318 z m 0,0.032 a 0.127,0.127 0 1 1 0,0.254 0.127,0.127 0 0 1 0,-0.254 z m -0.063,0.047 v 0.16 h 0.029 V 10.86 h 0.026 l 0.038,0.062 h 0.033 l -0.04,-0.066 c 0.024,-0.009 0.036,-0.023 0.036,-0.046 0,-0.031 -0.023,-0.047 -0.068,-0.047 z m 0.029,0.026 h 0.021 c 0.022,0 0.042,0.003 0.042,0.023 0,0.021 -0.023,0.022 -0.049,0.022 h -0.014 z"
         fill="#2c2c2c"
         id="path203713" /><path
         d="m 11.083,7.191 c -0.017,0.204 -0.294,0.565 -0.427,0.44 0.276,-0.36 0.16,-0.838 0.012,-1.229 C 10.464,5.864 10.308,5.256 9.872,4.868 9.47,4.509 8.883,4.695 8.403,4.814 7.891,4.942 7.307,4.512 6.836,4.839 6.446,5.11 6.505,5.657 6.373,6.076 6.236,6.506 6.714,6.791 7.068,6.913 7.518,7.068 8.054,7.018 8.432,7.323 8.64,7.493 8.784,7.833 8.784,8.151 7.832,8.151 6.86,7.765 6.258,7.178 6.056,6.975 6.312,6.563 5.862,6.563 c -0.38,0 -0.757,-0.02 -1.037,0.213 -0.286,0.238 -0.173,0.695 0.083,0.943 0.834,0.812 1.888,1.338 2.97,1.694 1.124,0.37 2.4,0.493 3.509,0.003 0.507,-0.225 0.994,-0.762 0.871,-1.355 -0.11,-0.535 -0.7,-0.76 -1.175,-0.87 z M 8.616,5.057 C 8.919,4.854 9.457,4.753 9.691,5.032 c 0.276,0.33 -0.469,0.5 -0.7,0.333 0.13,-0.032 0.407,-0.287 0.09,-0.317 -0.163,-0.02 -0.328,0 -0.465,0.01 z M 8.041,5.952 C 7.658,5.909 7.323,6.353 6.965,5.998 6.76,5.795 6.788,5.318 7.123,5.585 7.456,5.85 8.035,5.387 8.283,5.781 8.375,5.925 8.161,5.966 8.041,5.952 Z"
         fill="#f03030"
         id="path203715" /></g></g></svg>
